X:242
T:The Sno
R:reel
C:Bruce Osborne - Jan. 2003
Z:abc by bosborne@kos.net
M:2/4
L:1/8
K:Bb
F/E/|D/B,/A,/B,/ D/B,/D/F/|B/F/B/d/ g/f/d/B/|c/B/c/d/ e/c/A/c/|B/c/B/G/ F/G/F/E/|\
D/B,/A,/B,/ D/B,/D/F/|B/F/B/d/ g/f/d/B/|c/B/c/d/ e/c/A/c/|B/A/B/c/ B:|
|:A/B/|c/F/=E/F/ c/A/F/A/|B/A/B/c/ d/g/f/d/|c/F/=E/F/ c/A/F/A/|B/F/=E/F/ BA/B/|\
c/F/=E/F/ c/A/F/A/|B/A/B/c/ d/g/f/d/|c/F/=E/F/ c/A/F/A/|B/A/B/c/ B:|
